X:266
T:Waltz of the Rock
R:waltz
C:Bruce Osborne  --  July 1 1997
Z:bosborne@kos.net
M:3/4
L:1/8
K:A
ED|C2 E2 AB|c2 B2 A2|B2 A2 F2|E3 F ED|\
C2 E2 AB|c2 B2 A2|e2 c2 A2|B4 ED|\
C2 E2 AB|c2 B2 A2|F2 [F2 d2] [A2 f2]|[A4 e4] cd|\
e2 c2 A2|d2 B2 G2|A3 G AB|A4||\
ED|CE A2 AB|c2 B2 A2|F2 [F2 d2] [A2 f2]|[A4 e4] cd|\
e2 c2 A2|f2 e2 c2|c2 B2 A2|B4 ED|\
CE A2 ED|CE A2 c2|[F2 d2] [F2 d2] [A2 f2]|[A4 e4] cd|\
e2 c2 A2|d2 B2 G2|A3 G AB|A4||
